src/pos-icons/emoticon-devil-outline.svg

<svg height="24" viewBox="0 0 24 24" width="24" xmlns="http://www.w3.org/2000/svg"><path d="m1.5 2.09c.9.91 2.37 1.64 4.19 2.16 1.72-1.41 3.92-2.25 6.31-2.25s4.59.84 6.31 2.25c1.82-.52 3.29-1.25 4.19-2.16-.03 1.63-.85 3.12-2.22 4.31 1.09 1.6 1.72 3.52 1.72 5.6a10 10 0 0 1 -10 10 10 10 0 0 1 -10-10c0-2.08.63-4 1.72-5.6-1.37-1.19-2.19-2.68-2.22-4.31m18.5 9.91a8 8 0 0 0 -8-8 8 8 0 0 0 -8 8 8 8 0 0 0 8 8 8 8 0 0 0 8-8m-9.5-2c0 .8-.7 1.5-1.5 1.5s-1.5-.7-1.5-1.5v-1.5zm6 0c0 .8-.7 1.5-1.5 1.5s-1.5-.7-1.5-1.5l3-1.5zm-4.5 7.23c-1.75 0-3.29-.73-4.19-1.81l1.42-1.42c.45.72 1.52 1.23 2.77 1.23s2.32-.51 2.77-1.23l1.42 1.42c-.9 1.08-2.44 1.81-4.19 1.81z"/></svg>

<?xml version="1.0" encoding="UTF-8"?><!DOCTYPE svg PUBLIC "-//W3C//DTD SVG 1.1//EN" "http://www.w3.org/Graphics/SVG/1.1/DTD/svg11.dtd"><svg xmlns="http://www.w3.org/2000/svg" xmlns:xlink="http://www.w3.org/1999/xlink" version="1.1" id="mdi-emoticon-devil-outline" width="24" height="24" viewBox="0 0 24 24"><path d="M1.5,2.09C2.4,3 3.87,3.73 5.69,4.25C7.41,2.84 9.61,2 12,2C14.39,2 16.59,2.84 18.31,4.25C20.13,3.73 21.6,3 22.5,2.09C22.47,3.72 21.65,5.21 20.28,6.4C21.37,8 22,9.92 22,12A10,10 0 0,1 12,22A10,10 0 0,1 2,12C2,9.92 2.63,8 3.72,6.4C2.35,5.21 1.53,3.72 1.5,2.09M20,12A8,8 0 0,0 12,4A8,8 0 0,0 4,12A8,8 0 0,0 12,20A8,8 0 0,0 20,12M10.5,10C10.5,10.8 9.8,11.5 9,11.5C8.2,11.5 7.5,10.8 7.5,10V8.5L10.5,10M16.5,10C16.5,10.8 15.8,11.5 15,11.5C14.2,11.5 13.5,10.8 13.5,10L16.5,8.5V10M12,17.23C10.25,17.23 8.71,16.5 7.81,15.42L9.23,14C9.68,14.72 10.75,15.23 12,15.23C13.25,15.23 14.32,14.72 14.77,14L16.19,15.42C15.29,16.5 13.75,17.23 12,17.23Z" /></svg>
